packages/icons/src/components/Icon/assets/small-outline/auto-fix.svg

<svg width="16" height="16" viewBox="0 0 16 16" fill="none" xmlns="http://www.w3.org/2000/svg">
<path d="M13.0001 5.00024L13.6267 3.62707L14.9998 3.00048L13.6267 2.3739L13.0001 1.00073L12.3735 2.3739L11.0003 3.00048L12.3735 3.62707L13.0001 5.00024Z" fill="black"/>
<path d="M5.33462 5.00024L5.96121 3.62707L7.33437 3.00048L5.96121 2.3739L5.33462 1.00073L4.70803 2.3739L3.33487 3.00048L4.70803 3.62707L5.33462 5.00024Z" fill="black"/>
<path d="M13.0002 8.66591L12.3737 10.0391L11.0005 10.6657L12.3737 11.2922L13.0002 12.6654L13.6268 11.2922L15 10.6657L13.6268 10.0391L13.0002 8.66591Z" fill="black"/>
<path d="M11.4737 6.41365L9.58727 4.52722C9.45395 4.40057 9.2873 4.33391 9.11399 4.33391C8.94068 4.33391 8.77404 4.40057 8.64072 4.52722L1.19498 11.973C0.935008 12.2329 0.935008 12.6529 1.19498 12.9128L3.08141 14.7993C3.21473 14.9326 3.38137 14.9993 3.55468 14.9993C3.728 14.9993 3.89464 14.9326 4.02796 14.8059L11.4737 7.3602C11.7337 7.10024 11.7337 6.67362 11.4737 6.41365ZM9.11399 5.94705L10.0539 6.88693L9.27397 7.66683L8.33409 6.72695L9.11399 5.94705ZM3.55468 13.3928L2.6148 12.4529L7.39421 7.66683L8.33409 8.60672L3.55468 13.3928Z" fill="black"/>
</svg>

<svg xmlns="http://www.w3.org/2000/svg" width="16" height="16" fill="none" viewBox="0 0 16 16">
    <path d="m13 5 .627-1.373L15 3l-1.373-.626L13 1l-.626 1.373L11 3l1.374.627zM5.335 5l.626-1.373L7.334 3l-1.373-.626L5.335 1l-.627 1.373L3.335 3l1.373.627zM13 8.666l-.626 1.373-1.373.627 1.373.626.626 1.373.627-1.373L15 10.666l-1.373-.627zm-1.526-2.252L9.587 4.527a.68.68 0 0 0-.473-.193.68.68 0 0 0-.473.193l-7.446 7.446c-.26.26-.26.68 0 .94l1.886 1.886c.134.134.3.2.474.2a.68.68 0 0 0 .473-.193l7.446-7.446a.67.67 0 0 0 0-.946m-2.36-.467.94.94-.78.78-.94-.94zm-5.56 7.446-.94-.94 4.78-4.786.94.94z"/>
</svg>
